X:1
T:Dance of the Merlitons
T:From the Nutcracker Suite
T:P. Tchaikovsky Adapted for recorder quartet by CMJ Linden
%%score 1 2 3 ( 4 5 )
L:1/8
M:2/4
K:D
V:1 treble+8 nm="Soprano Recorder" snm="S. Rec."
V:2 treble nm="Alto Recorder" snm="A. Rec."
V:3 treble nm="Tenor Recorder" snm="T. Rec."
V:4 bass+8 nm="Bass Recorder" snm="B. Rec."
V:5 bass+8 
V:1
 z4 | z4 || .D/.C/D/.C/ .D.C | .E!<(!(D/4F/4A/4!<)!d/4) !tenuto!f2 | %4
 .g/.f/.g/.f/!>(! (e/d/).A/!>)!.F/ | !tenuto!D2{/d} !tenuto!c2 |!p! .B/.B/.B/.B/{/.c} .B.A | %7
 .B/.B/.B/.B/{/c} .B.A | .d/.d/.d/.d/ .d/.c/.e/.d/ | .d/.c/.B/.A/!f! !>!g!>(!(e/4c/4G/4!>)!E/4) | %10
 .D/.C/.D/.C/ .D.C | .E(D/4F/4A/4d/4) !tenuto!f2 | .g/.f/.g/.f/ (e/d/).A/.F/ | %13
 !tenuto!D2{/d} !tenuto!c2 | .B/.B/.B/.B/{/c} .B.A | .d/.d/.d/.d/{/e} .d.c | %16
 .f/.f/.f/.f/ .f/.e/.f/.e/ | .a/.^g/.a/.g/ .b/.a/.b/.a/ ||"^A" .B/.A/.B/.A/ .B/.A/.B/.A/ | %19
 .B/.A/.B/.A/ .B/.A/.B/.A/ | .B/.A/.B/.A/ .B/.A/.B/.A/ | .B/.A/.B/.A/ .B/.A/.B/.A/ | %22
 .B/.A/.B/.A/ .B/.A/.B/.A/ | .B/.A/.B/.A/ .B/.A/.B/.c/ | .A/.B/.^B/.c/ .A/.=B/.^B/.c/ | %25
 .A/.B/.^B/.c/ .A/.=B/.^B/.c/ |"^B" .D/.C/.D/.C/ .D.C | .E(D/4F/4A/4d/4) !tenuto!f2 | %28
 .g/.f/.g/.f/ .e/.d/.A/.F/ | !tenuto!D2{/d} !tenuto!c2 | .B/.B/.B/.B/{/c} .B.A | %31
 .B/.B/.B/.B/{/c} .B.A | .d/.d/.d/.d/ .d/.c/.e/.d/ | .d/.c/.B/.A/ !>!g(e/4c/4G/4E/4) | %34
 .D/.C/.D/.C/ .D.C | .E(D/4F/4A/4d/4) !tenuto!f2 | .g/.f/.g/.f/ (e/d/).A/.F/ | %37
 !tenuto!D2{/d} !tenuto!c2 | .B/.B/.B/.B/{/c} .B.A | .B/.B/.B/.B/{/c} .B.A | %40
 ._B(C/4B/4d/4e/4) .ee- | ed- d z |] %42
V:2
 z4 | z4 || .A/.G/.A/.G/ .A.G | .A!<(!(A/4d/4f/4!<)!a/4) !tenuto!d'2 | %4
 .d'/.c'/.d'/.c'/!>(! (b/a/).f/!>)!.d/ | !tenuto!_B2{/_b} !tenuto!a2 |!p! .g/.G/.G/.G/{/G} .^G.A | %7
 .g/.G/.G/.G/{/G} .^G.A | ._b/._B/.B/.B/ .=B/.B/.B/.B/ | %9
 .g/.g/.g/.g/!f! !>![ee']!>(!(c'/4g/4e/4!>)!c/4) | .A/.G/.A/.G/ .A.G | %11
 .A(A/4d/4f/4a/4) !tenuto!d'2 | .d'/.c'/.d'/.c'/ (b/a/).f/.d/ | !tenuto!_B2{/_b} !tenuto!a2 | %14
 .g/.G/.G/.G/{/G} .^G.A | .b/.B/.B/.B/{/^A} .B.c | .d'/.d/.d/.d/ .^d/.e/.d/.e/ | %17
 .=f/.e/.f/.e/ .f/.e/.f/.e/ || .e/.e/.e/.e/ .e/.e/.g/.g/ | .g/.g/.g/.g/ .g/.g/.g/.g/ | %20
 .G/.G/.G/.G/ .G/.G/.G/.G/ | .G/.G/.G/.G/ .G/.G/.G/.G/ | .G/.G/.G/.G/ .G/.G/.G/.G/ | %23
 .G/.G/.G/.G/ .G/.G/.G/.G/ | .G/.G/.G/.G/ .G/.G/.G/.G/ | .G/.G/.G/.G/ .G/.G/.G/.G/ | %26
 .A/.G/.A/.G/ .A.G | .A(A/4d/4f/4a/4) !tenuto!d'2 | .d'/.c'/.d'/.c'/ (b/a/).f/.d/ | %29
 !tenuto!_B2{/_b} !tenuto!a2 | .g/.G/.G/.G/{/G} .^G.A | .g/.G/.G/.G/{/G} .^G.A | %32
 ._b/._B/.B/.B/ .=B/.B/.B/.B/ | .G/.G/.G/.G/ !>!e(c'/4g/4e/4c/4) | .A/.G/.A/.G/ .A.G | %35
 .A(A/4d/4f/4a/4) !tenuto!d'2 | .d'/.c'/.d'/.c'/ (b/a/).f/.d/ | !tenuto!_B2{/_b} !tenuto!a2 | %38
 .g/.G/.G/.G/{/G} .^G.A | .g/.G/.G/.G/{/G} .^G.A | .d(_B/4d/4e/4_b/4) .ba- | ad- d z |] %42
V:3
 z4 | z4 || .F/.E/.F/.E/ .F.E | .G!<(!(F/4A/4d/4!<)!f/4) !tenuto!a2 | %4
 .b/.a/.b/.a/!>(! (g/f/).d/!>)!.A/ | !tenuto!G2{/f} !tenuto!g2 |!p! .e/.E/.E/.E/{/E} .^E/.F/ z | %7
 .c/.C/.C/.C/{/C} .D.D | .e/.E/.E/.E/ .E/.E/.E/.E/ | %9
 .E/.E/.C/.C/!f! !>![cc']!>(!(g/4e/4c/4!>)!G/4) | .F/.E/.F/.E/ .F.E | .G(F/4A/4d/4f/4) !tenuto!a2 | %12
 .b/.a/.b/.a/ (g/f/).d/.A/ | !tenuto!G2{/f} !tenuto!g2 | .e/.E/.E/.E/{/E} .^E/.F/ z | %15
 .^g/.^G/.G/.G/{/^^F} .G/.A/ z | .b/.B/.B/.B/ .^B/.c/.B/.c/ | .c/.d/.c/.d/ .d/.c/.d/.c/ || %18
 .c/.c/.c/.c/ .c/.c/.c/.c/ | .e/.e/.e/.e/ .c/.c/.c/.c/ | .C/.C/.C/.C/ .C/.C/.E/.E/ | %21
 .C/.C/.D/.D/ .E/.E/.E/.E/ | .E/.E/.E/.E/ .E/.E/.E/.E/ | .C/.C/.E/.E/ .C/.C/.D/.E/ | %24
 .C/.D/.^D/.E/ .C/.=D/.^D/.E/ | .C/.D/.^D/.E/ .C/.=D/.^D/.E/ | .F/.E/.F/.E/ .F.E | %27
 .G(F/4A/4d/4f/4) !tenuto!a2 | .b/.a/.b/.a/ (g/f/).d/.A/ | !tenuto!G2{/f} !tenuto!g2 | %30
 .e/.E/.E/.E/{/E} .^E/.F/ z | .c/.C/.C/.C/{/C} .D.D | .e/.E/.E/.E/ .E/.E/.E/.E/ | %33
 .E/.E/.C/.C/ !>![cc'](g/4e/4c/4G/4) | .F/.E/.F/.E/ .F.E | .G(F/4A/4d/4f/4) !tenuto!a2 | %36
 .b/.a/.b/.a/ (g/f/).d/.A/ | !tenuto!G2{/f} !tenuto!g2 | .e/.E/.E/.E/{/E} .^E/.F/ z | %39
 .c/.C/.C/.C/{/C} .D/.D/ z | .E(D/4E/4_B/4d/4) .dc- | c.d z2 |] %42
V:4
!p! D,A,, A,,A,, | D,A,, A,,A,, || D,A,, A,,A,, | D,A,, A,,A,, | D,A,, A,,A,, | E,E, A,,A,, | %6
 C,C, D,D, | E,E, F,F, | G,G, ^G,G, | A,A, z2 | D,A,, A,,A,, | D,A,, A,,A,, | D,A,, A,,A,, | %13
 E,E, A,,A,, | C,C, D,D, | E,E, F,F, | ^G,G, A,A, | B,B, A,A, ||!f!!>(! (G,3!>)! E,) | %19
!<(! (=C,!<)!^C,!>(! F,>!>)!E,) | (E,3 C,) |!<(! (A,,!<)!B,,!>(! D,>!>)!C,) |!p! C,3 A, | %23
 E,C, A,, z | z2 C, z | z2 (E,/4D,/4C,/4B,,/4)(A,/4G,/4F,/4E,/4) | D,A, A,,A, | D,A, A,,A, | %28
 D,A, A,,A, | E,E, A,,A, | C,C, D,D, | E,E, F,F, | G,G, ^G,G, | A,A, z2 | D,A, A,,A, | D,A, A,,A, | %36
 D,A, A,,A, | E,E, A,,A, | C,C, D,D, | E,E, F,F, | G, z z2 | z D, DD, |] %42
V:5
 x4 | x4 || x4 | x4 | x4 | x4 | x4 | x4 | x4 | x4 | x4 | x4 | x4 | x4 | x4 | x4 | x4 | x4 || x4 | %19
 x4 | x4 | x4 | x4 | E,C, A,, z | x4 | x4 | x4 | x4 | x4 | x4 | x4 | x4 | x4 | x4 | x4 | x4 | x4 | %37
 x4 | x4 | x4 | x4 | x4 |] %42

